report_00007_2020-12-11T15:55:29.892Z/cumulative-layout-shift/samples/pages+cached+noexternal+nosvg/raw/values.svg

<svg width="640" height="490" xmlns="http://www.w3.org/2000/svg" xmlns:xlink="http://www.w3.org/1999/xlink"><path fill="#fff" d="M0 0h640v490H0z"/><defs><path id="d" stroke-width=".222" stroke="currentColor" d="M-1-1h2v2h-2z"/><path id="b" stroke-width=".222" stroke="currentColor" d="M0-1.33l-1.33 2h2.66z"/><path id="f" stroke-width=".222" stroke="currentColor" d="M0 1.33L1.265.411.782-1.067l-1.564-.009-.483 1.487z"/><use xlink:href="#b" id="c" stroke="currentColor" transform="rotate(180)"/><use xlink:href="#d" id="e" stroke="currentColor" transform="rotate(45)"/><circle id="a" stroke-width=".222" stroke="currentColor" cx="0" cy="0" r="1"/></defs><g fill="none" color="#000" stroke="currentColor"><path stroke="#000" d="M53.9 379.1h9m552.1 0h-9"/><text transform="translate(45.6 383)" stroke="none" fill="#000" font-family="Arial" font-size="12" text-anchor="end"><tspan>0.2</tspan></text></g><g fill="none" color="#000" stroke="currentColor"><path stroke="#000" d="M53.9 304.5h9m552.1 0h-9"/><text transform="translate(45.6 308.4)" stroke="none" fill="#000" font-family="Arial" font-size="12" text-anchor="end"><tspan>0.4</tspan></text></g><g fill="none" color="#000" stroke="currentColor"><path stroke="#000" d="M53.9 229.9h9m552.1 0h-9"/><text transform="translate(45.6 233.8)" stroke="none" fill="#000" font-family="Arial" font-size="12" text-anchor="end"><tspan>0.6</tspan></text></g><g fill="none" color="#000" stroke="currentColor"><path stroke="#000" d="M53.9 155.3h9m552.1 0h-9"/><text transform="translate(45.6 159.2)" stroke="none" fill="#000" font-family="Arial" font-size="12" text-anchor="end"><tspan>0.8</tspan></text></g><g fill="none" color="#000" stroke="currentColor"><path stroke="#000" d="M53.9 80.7h9m552.1 0h-9"/><text transform="translate(45.6 84.6)" stroke="none" fill="#000" font-family="Arial" font-size="12" text-anchor="end"><tspan>1</tspan></text></g><g fill="none" color="#000" stroke="currentColor"><path stroke="#000" d="M53.9 436v-9m0-408.9v9"/><text transform="translate(53.9 457.9)" stroke="none" fill="#000" font-family="Arial" font-size="12" text-anchor="middle"><tspan>0</tspan></text></g><g fill="none" color="#000" stroke="currentColor"><path stroke="#000" d="M110.6 436v-9m0-408.9v9"/><text transform="translate(110.6 457.9)" stroke="none" fill="#000" font-family="Arial" font-size="12" text-anchor="middle"><tspan>10</tspan></text></g><g fill="none" color="#000" stroke="currentColor"><path stroke="#000" d="M167.3 436v-9m0-408.9v9"/><text transform="translate(167.3 457.9)" stroke="none" fill="#000" font-family="Arial" font-size="12" text-anchor="middle"><tspan>20</tspan></text></g><g fill="none" color="#000" stroke="currentColor"><path stroke="#000" d="M223.9 436v-9m0-408.9v9"/><text transform="translate(223.9 457.9)" stroke="none" fill="#000" font-family="Arial" font-size="12" text-anchor="middle"><tspan>30</tspan></text></g><g fill="none" color="#000" stroke="currentColor"><path stroke="#000" d="M280.6 436v-9m0-408.9v9"/><text transform="translate(280.6 457.9)" stroke="none" fill="#000" font-family="Arial" font-size="12" text-anchor="middle"><tspan>40</tspan></text></g><g fill="none" color="#000" stroke="currentColor"><path stroke="#000" d="M337.3 436v-9m0-408.9v9"/><text transform="translate(337.3 457.9)" stroke="none" fill="#000" font-family="Arial" font-size="12" text-anchor="middle"><tspan>50</tspan></text></g><g fill="none" color="#000" stroke="currentColor"><path stroke="#000" d="M394 436v-9m0-408.9v9"/><text transform="translate(394 457.9)" stroke="none" fill="#000" font-family="Arial" font-size="12" text-anchor="middle"><tspan>60</tspan></text></g><g fill="none" color="#000" stroke="currentColor"><path stroke="#000" d="M450.6 436v-9m0-408.9v9"/><text transform="translate(450.6 457.9)" stroke="none" fill="#000" font-family="Arial" font-size="12" text-anchor="middle"><tspan>70</tspan></text></g><g fill="none" color="#000" stroke="currentColor"><path stroke="#000" d="M507.3 436v-9m0-408.9v9"/><text transform="translate(507.3 457.9)" stroke="none" fill="#000" font-family="Arial" font-size="12" text-anchor="middle"><tspan>80</tspan></text></g><g fill="none" color="#000" stroke="currentColor"><path stroke="#000" d="M564 436v-9m0-408.9v9"/><text transform="translate(564 457.9)" stroke="none" fill="#000" font-family="Arial" font-size="12" text-anchor="middle"><tspan>90</tspan></text></g><path stroke="#000" d="M53.9 18.1V436H615V18.1H53.9z" fill="none" color="#000"/><text transform="translate(175.7 475.9)" stroke="none" fill="#000" font-family="Arial" font-size="12" text-anchor="end" color="#000"><tspan>raw</tspan></text><path stroke="#9400D3" d="M184 472h42.2M53.9 428l5.7-50.8 5.6-8.1h5.7l5.7 8.1h5.6l5.7 3.2 5.7-11.3h5.6l5.7 58.9 5.7-50.8 5.6-8.1 5.7 8.1 5.7 50.8 5.6-58.9 5.7 11.3 5.7-11.3 5.7 58.9h5.6l5.7-83.4 5.7 24.5 5.6-343 5.7 351.1 5.7 50.8 5.6-401.9 5.7 351.1 5.7-8.1 5.6 8.1 5.7 50.8 5.7-50.8 5.6 3.2 5.7-354.3 5.7 351.1 5.6 50.8h5.7l5.7-58.9h11.3l5.7-343 5.6 343h11.4l5.6 58.9 5.7-58.9 5.7 11.3 5.6 47.6h11.4l5.6-47.6h5.7l5.7-35.8 5.7 35.8 5.6-3.2 5.7 3.2L360 428l5.6-50.8h5.7l5.7 3.2 5.6-11.3h17l5.7-343 5.7 343h5.6l5.7 8.1 5.7 3.2 5.6-14.5 5.7 3.2L445 428l5.6-47.6 5.7-11.3h11.3l5.7 8.1h11.3l5.7 3.2L496 26.1l5.6 343 5.7 11.3L513 428h11.3l5.7-58.9h5.7l5.6 11.3L547 26.1l5.7 351.1 5.6 50.8 5.7-83.4 5.7 35.8 5.6 47.6 5.7-58.9 5.7 58.9 5.6-50.8L598 428l5.7-58.9h5.6l5.7 11.3" fill="none" color="#000"/><text transform="translate(375.6 475.9)" stroke="none" fill="#000" font-family="Arial" font-size="12" text-anchor="end" color="#000"><tspan>score p10=0.1</tspan></text><path stroke="#009E73" d="M383.9 472h42.2M53.9 416.4H615" fill="none" color="#000"/><text transform="translate(575.5 475.9)" stroke="none" fill="#000" font-family="Arial" font-size="12" text-anchor="end" color="#000"><tspan>score median=0.25</tspan></text><path stroke="#56B4E9" d="M583.8 472H626M53.9 360.5H615" fill="none" color="#000"/><g fill="none" color="#000" stroke="currentColor"><path stroke="#000" d="M53.9 18.1V436H615V18.1H53.9z"/></g></svg>

<?xml version="1.0" encoding="utf-8"  standalone="no"?>
<svg 
 width="640" height="490"
 viewBox="0 0 640 490"
 xmlns="http://www.w3.org/2000/svg"
 xmlns:xlink="http://www.w3.org/1999/xlink"
>

<title>Gnuplot</title>
<desc>Produced by GNUPLOT 5.4 patchlevel 0 </desc>

<g id="gnuplot_canvas">

<rect x="0" y="0" width="640" height="490" fill="#ffffff"/>
<defs>

	<circle id='gpDot' r='0.5' stroke-width='0.5' stroke='currentColor'/>
	<path id='gpPt0' stroke-width='0.222' stroke='currentColor' d='M-1,0 h2 M0,-1 v2'/>
	<path id='gpPt1' stroke-width='0.222' stroke='currentColor' d='M-1,-1 L1,1 M1,-1 L-1,1'/>
	<path id='gpPt2' stroke-width='0.222' stroke='currentColor' d='M-1,0 L1,0 M0,-1 L0,1 M-1,-1 L1,1 M-1,1 L1,-1'/>
	<rect id='gpPt3' stroke-width='0.222' stroke='currentColor' x='-1' y='-1' width='2' height='2'/>
	<rect id='gpPt4' stroke-width='0.222' stroke='currentColor' fill='currentColor' x='-1' y='-1' width='2' height='2'/>
	<circle id='gpPt5' stroke-width='0.222' stroke='currentColor' cx='0' cy='0' r='1'/>
	<use xlink:href='#gpPt5' id='gpPt6' fill='currentColor' stroke='none'/>
	<path id='gpPt7' stroke-width='0.222' stroke='currentColor' d='M0,-1.33 L-1.33,0.67 L1.33,0.67 z'/>
	<use xlink:href='#gpPt7' id='gpPt8' fill='currentColor' stroke='none'/>
	<use xlink:href='#gpPt7' id='gpPt9' stroke='currentColor' transform='rotate(180)'/>
	<use xlink:href='#gpPt9' id='gpPt10' fill='currentColor' stroke='none'/>
	<use xlink:href='#gpPt3' id='gpPt11' stroke='currentColor' transform='rotate(45)'/>
	<use xlink:href='#gpPt11' id='gpPt12' fill='currentColor' stroke='none'/>
	<path id='gpPt13' stroke-width='0.222' stroke='currentColor' d='M0,1.330 L1.265,0.411 L0.782,-1.067 L-0.782,-1.076 L-1.265,0.411 z'/>
	<use xlink:href='#gpPt13' id='gpPt14' fill='currentColor' stroke='none'/>
	<filter id='textbox' filterUnits='objectBoundingBox' x='0' y='0' height='1' width='1'>
	  <feFlood flood-color='#FFFFFF' flood-opacity='1' result='bgnd'/>
	  <feComposite in='SourceGraphic' in2='bgnd' operator='atop'/>
	</filter>
	<filter id='greybox' filterUnits='objectBoundingBox' x='0' y='0' height='1' width='1'>
	  <feFlood flood-color='lightgrey' flood-opacity='1' result='grey'/>
	  <feComposite in='SourceGraphic' in2='grey' operator='atop'/>
	</filter>
</defs>
<g fill="none" color="#FFFFFF" stroke="black" stroke-width="1.00" stroke-linecap="butt" stroke-linejoin="miter">
</g>
<g fill="none" color="black" stroke="currentColor" stroke-width="1.00" stroke-linecap="butt" stroke-linejoin="miter">
	<path stroke='black'  d='M53.9,379.1 L62.9,379.1 M615.0,379.1 L606.0,379.1  '/>	<g transform="translate(45.6,383.0)" stroke="none" fill="black" font-family="Arial" font-size="12.00"  text-anchor="end">
		<text><tspan font-family="Arial" > 0.2</tspan></text>
	</g>
</g>
<g fill="none" color="black" stroke="currentColor" stroke-width="1.00" stroke-linecap="butt" stroke-linejoin="miter">
	<path stroke='black'  d='M53.9,304.5 L62.9,304.5 M615.0,304.5 L606.0,304.5  '/>	<g transform="translate(45.6,308.4)" stroke="none" fill="black" font-family="Arial" font-size="12.00"  text-anchor="end">
		<text><tspan font-family="Arial" > 0.4</tspan></text>
	</g>
</g>
<g fill="none" color="black" stroke="currentColor" stroke-width="1.00" stroke-linecap="butt" stroke-linejoin="miter">
	<path stroke='black'  d='M53.9,229.9 L62.9,229.9 M615.0,229.9 L606.0,229.9  '/>	<g transform="translate(45.6,233.8)" stroke="none" fill="black" font-family="Arial" font-size="12.00"  text-anchor="end">
		<text><tspan font-family="Arial" > 0.6</tspan></text>
	</g>
</g>
<g fill="none" color="black" stroke="currentColor" stroke-width="1.00" stroke-linecap="butt" stroke-linejoin="miter">
	<path stroke='black'  d='M53.9,155.3 L62.9,155.3 M615.0,155.3 L606.0,155.3  '/>	<g transform="translate(45.6,159.2)" stroke="none" fill="black" font-family="Arial" font-size="12.00"  text-anchor="end">
		<text><tspan font-family="Arial" > 0.8</tspan></text>
	</g>
</g>
<g fill="none" color="black" stroke="currentColor" stroke-width="1.00" stroke-linecap="butt" stroke-linejoin="miter">
	<path stroke='black'  d='M53.9,80.7 L62.9,80.7 M615.0,80.7 L606.0,80.7  '/>	<g transform="translate(45.6,84.6)" stroke="none" fill="black" font-family="Arial" font-size="12.00"  text-anchor="end">
		<text><tspan font-family="Arial" > 1</tspan></text>
	</g>
</g>
<g fill="none" color="black" stroke="currentColor" stroke-width="1.00" stroke-linecap="butt" stroke-linejoin="miter">
	<path stroke='black'  d='M53.9,436.0 L53.9,427.0 M53.9,18.1 L53.9,27.1  '/>	<g transform="translate(53.9,457.9)" stroke="none" fill="black" font-family="Arial" font-size="12.00"  text-anchor="middle">
		<text><tspan font-family="Arial" > 0</tspan></text>
	</g>
</g>
<g fill="none" color="black" stroke="currentColor" stroke-width="1.00" stroke-linecap="butt" stroke-linejoin="miter">
	<path stroke='black'  d='M110.6,436.0 L110.6,427.0 M110.6,18.1 L110.6,27.1  '/>	<g transform="translate(110.6,457.9)" stroke="none" fill="black" font-family="Arial" font-size="12.00"  text-anchor="middle">
		<text><tspan font-family="Arial" > 10</tspan></text>
	</g>
</g>
<g fill="none" color="black" stroke="currentColor" stroke-width="1.00" stroke-linecap="butt" stroke-linejoin="miter">
	<path stroke='black'  d='M167.3,436.0 L167.3,427.0 M167.3,18.1 L167.3,27.1  '/>	<g transform="translate(167.3,457.9)" stroke="none" fill="black" font-family="Arial" font-size="12.00"  text-anchor="middle">
		<text><tspan font-family="Arial" > 20</tspan></text>
	</g>
</g>
<g fill="none" color="black" stroke="currentColor" stroke-width="1.00" stroke-linecap="butt" stroke-linejoin="miter">
	<path stroke='black'  d='M223.9,436.0 L223.9,427.0 M223.9,18.1 L223.9,27.1  '/>	<g transform="translate(223.9,457.9)" stroke="none" fill="black" font-family="Arial" font-size="12.00"  text-anchor="middle">
		<text><tspan font-family="Arial" > 30</tspan></text>
	</g>
</g>
<g fill="none" color="black" stroke="currentColor" stroke-width="1.00" stroke-linecap="butt" stroke-linejoin="miter">
	<path stroke='black'  d='M280.6,436.0 L280.6,427.0 M280.6,18.1 L280.6,27.1  '/>	<g transform="translate(280.6,457.9)" stroke="none" fill="black" font-family="Arial" font-size="12.00"  text-anchor="middle">
		<text><tspan font-family="Arial" > 40</tspan></text>
	</g>
</g>
<g fill="none" color="black" stroke="currentColor" stroke-width="1.00" stroke-linecap="butt" stroke-linejoin="miter">
	<path stroke='black'  d='M337.3,436.0 L337.3,427.0 M337.3,18.1 L337.3,27.1  '/>	<g transform="translate(337.3,457.9)" stroke="none" fill="black" font-family="Arial" font-size="12.00"  text-anchor="middle">
		<text><tspan font-family="Arial" > 50</tspan></text>
	</g>
</g>
<g fill="none" color="black" stroke="currentColor" stroke-width="1.00" stroke-linecap="butt" stroke-linejoin="miter">
	<path stroke='black'  d='M394.0,436.0 L394.0,427.0 M394.0,18.1 L394.0,27.1  '/>	<g transform="translate(394.0,457.9)" stroke="none" fill="black" font-family="Arial" font-size="12.00"  text-anchor="middle">
		<text><tspan font-family="Arial" > 60</tspan></text>
	</g>
</g>
<g fill="none" color="black" stroke="currentColor" stroke-width="1.00" stroke-linecap="butt" stroke-linejoin="miter">
	<path stroke='black'  d='M450.6,436.0 L450.6,427.0 M450.6,18.1 L450.6,27.1  '/>	<g transform="translate(450.6,457.9)" stroke="none" fill="black" font-family="Arial" font-size="12.00"  text-anchor="middle">
		<text><tspan font-family="Arial" > 70</tspan></text>
	</g>
</g>
<g fill="none" color="black" stroke="currentColor" stroke-width="1.00" stroke-linecap="butt" stroke-linejoin="miter">
	<path stroke='black'  d='M507.3,436.0 L507.3,427.0 M507.3,18.1 L507.3,27.1  '/>	<g transform="translate(507.3,457.9)" stroke="none" fill="black" font-family="Arial" font-size="12.00"  text-anchor="middle">
		<text><tspan font-family="Arial" > 80</tspan></text>
	</g>
</g>
<g fill="none" color="black" stroke="currentColor" stroke-width="1.00" stroke-linecap="butt" stroke-linejoin="miter">
	<path stroke='black'  d='M564.0,436.0 L564.0,427.0 M564.0,18.1 L564.0,27.1  '/>	<g transform="translate(564.0,457.9)" stroke="none" fill="black" font-family="Arial" font-size="12.00"  text-anchor="middle">
		<text><tspan font-family="Arial" > 90</tspan></text>
	</g>
</g>
<g fill="none" color="black" stroke="currentColor" stroke-width="1.00" stroke-linecap="butt" stroke-linejoin="miter">
</g>
<g fill="none" color="black" stroke="currentColor" stroke-width="1.00" stroke-linecap="butt" stroke-linejoin="miter">
	<path stroke='black'  d='M53.9,18.1 L53.9,436.0 L615.0,436.0 L615.0,18.1 L53.9,18.1 Z  '/></g>
<g fill="none" color="black" stroke="currentColor" stroke-width="1.00" stroke-linecap="butt" stroke-linejoin="miter">
</g>
	<g id="gnuplot_plot_1" ><title>raw</title>
<g fill="none" color="black" stroke="currentColor" stroke-width="1.00" stroke-linecap="butt" stroke-linejoin="miter">
	<g transform="translate(175.7,475.9)" stroke="none" fill="black" font-family="Arial" font-size="12.00"  text-anchor="end">
		<text><tspan font-family="Arial" >raw</tspan></text>
	</g>
</g>
<g fill="none" color="black" stroke="currentColor" stroke-width="1.00" stroke-linecap="butt" stroke-linejoin="miter">
	<path stroke='rgb(148,   0, 211)'  d='M184.0,472.0 L226.2,472.0 M53.9,428.0 L59.6,377.2 L65.2,369.1 L70.9,369.1 L76.6,377.2 L82.2,377.2
		L87.9,380.4 L93.6,369.1 L99.2,369.1 L104.9,428.0 L110.6,377.2 L116.2,369.1 L121.9,377.2 L127.6,428.0
		L133.2,369.1 L138.9,380.4 L144.6,369.1 L150.3,428.0 L155.9,428.0 L161.6,344.6 L167.3,369.1 L172.9,26.1
		L178.6,377.2 L184.3,428.0 L189.9,26.1 L195.6,377.2 L201.3,369.1 L206.9,377.2 L212.6,428.0 L218.3,377.2
		L223.9,380.4 L229.6,26.1 L235.3,377.2 L240.9,428.0 L246.6,428.0 L252.3,369.1 L257.9,369.1 L263.6,369.1
		L269.3,26.1 L274.9,369.1 L280.6,369.1 L286.3,369.1 L291.9,428.0 L297.6,369.1 L303.3,380.4 L308.9,428.0
		L314.6,428.0 L320.3,428.0 L325.9,380.4 L331.6,380.4 L337.3,344.6 L343.0,380.4 L348.6,377.2 L354.3,380.4
		L360.0,428.0 L365.6,377.2 L371.3,377.2 L377.0,380.4 L382.6,369.1 L388.3,369.1 L394.0,369.1 L399.6,369.1
		L405.3,26.1 L411.0,369.1 L416.6,369.1 L422.3,377.2 L428.0,380.4 L433.6,365.9 L439.3,369.1 L445.0,428.0
		L450.6,380.4 L456.3,369.1 L462.0,369.1 L467.6,369.1 L473.3,377.2 L479.0,377.2 L484.6,377.2 L490.3,380.4
		L496.0,26.1 L501.6,369.1 L507.3,380.4 L513.0,428.0 L518.6,428.0 L524.3,428.0 L530.0,369.1 L535.7,369.1
		L541.3,380.4 L547.0,26.1 L552.7,377.2 L558.3,428.0 L564.0,344.6 L569.7,380.4 L575.3,428.0 L581.0,369.1
		L586.7,428.0 L592.3,377.2 L598.0,428.0 L603.7,369.1 L609.3,369.1 L615.0,380.4  '/></g>
	</g>
	<g id="gnuplot_plot_2" ><title>score p10=0.1</title>
<g fill="none" color="black" stroke="currentColor" stroke-width="1.00" stroke-linecap="butt" stroke-linejoin="miter">
	<g transform="translate(375.6,475.9)" stroke="none" fill="black" font-family="Arial" font-size="12.00"  text-anchor="end">
		<text><tspan font-family="Arial" >score p10=0.1</tspan></text>
	</g>
</g>
<g fill="none" color="black" stroke="currentColor" stroke-width="1.00" stroke-linecap="butt" stroke-linejoin="miter">
	<path stroke='rgb(  0, 158, 115)'  d='M383.9,472.0 L426.1,472.0 M53.9,416.4 L59.6,416.4 L65.2,416.4 L70.9,416.4 L76.6,416.4 L82.2,416.4
		L87.9,416.4 L93.6,416.4 L99.2,416.4 L104.9,416.4 L110.6,416.4 L116.2,416.4 L121.9,416.4 L127.6,416.4
		L133.2,416.4 L138.9,416.4 L144.6,416.4 L150.3,416.4 L155.9,416.4 L161.6,416.4 L167.3,416.4 L172.9,416.4
		L178.6,416.4 L184.3,416.4 L189.9,416.4 L195.6,416.4 L201.3,416.4 L206.9,416.4 L212.6,416.4 L218.3,416.4
		L223.9,416.4 L229.6,416.4 L235.3,416.4 L240.9,416.4 L246.6,416.4 L252.3,416.4 L257.9,416.4 L263.6,416.4
		L269.3,416.4 L274.9,416.4 L280.6,416.4 L286.3,416.4 L291.9,416.4 L297.6,416.4 L303.3,416.4 L308.9,416.4
		L314.6,416.4 L320.3,416.4 L325.9,416.4 L331.6,416.4 L337.3,416.4 L343.0,416.4 L348.6,416.4 L354.3,416.4
		L360.0,416.4 L365.6,416.4 L371.3,416.4 L377.0,416.4 L382.6,416.4 L388.3,416.4 L394.0,416.4 L399.6,416.4
		L405.3,416.4 L411.0,416.4 L416.6,416.4 L422.3,416.4 L428.0,416.4 L433.6,416.4 L439.3,416.4 L445.0,416.4
		L450.6,416.4 L456.3,416.4 L462.0,416.4 L467.6,416.4 L473.3,416.4 L479.0,416.4 L484.6,416.4 L490.3,416.4
		L496.0,416.4 L501.6,416.4 L507.3,416.4 L513.0,416.4 L518.6,416.4 L524.3,416.4 L530.0,416.4 L535.7,416.4
		L541.3,416.4 L547.0,416.4 L552.7,416.4 L558.3,416.4 L564.0,416.4 L569.7,416.4 L575.3,416.4 L581.0,416.4
		L586.7,416.4 L592.3,416.4 L598.0,416.4 L603.7,416.4 L609.3,416.4 L615.0,416.4  '/></g>
	</g>
	<g id="gnuplot_plot_3" ><title>score median=0.25</title>
<g fill="none" color="black" stroke="currentColor" stroke-width="1.00" stroke-linecap="butt" stroke-linejoin="miter">
	<g transform="translate(575.5,475.9)" stroke="none" fill="black" font-family="Arial" font-size="12.00"  text-anchor="end">
		<text><tspan font-family="Arial" >score median=0.25</tspan></text>
	</g>
</g>
<g fill="none" color="black" stroke="currentColor" stroke-width="1.00" stroke-linecap="butt" stroke-linejoin="miter">
	<path stroke='rgb( 86, 180, 233)'  d='M583.8,472.0 L626.0,472.0 M53.9,360.5 L59.6,360.5 L65.2,360.5 L70.9,360.5 L76.6,360.5 L82.2,360.5
		L87.9,360.5 L93.6,360.5 L99.2,360.5 L104.9,360.5 L110.6,360.5 L116.2,360.5 L121.9,360.5 L127.6,360.5
		L133.2,360.5 L138.9,360.5 L144.6,360.5 L150.3,360.5 L155.9,360.5 L161.6,360.5 L167.3,360.5 L172.9,360.5
		L178.6,360.5 L184.3,360.5 L189.9,360.5 L195.6,360.5 L201.3,360.5 L206.9,360.5 L212.6,360.5 L218.3,360.5
		L223.9,360.5 L229.6,360.5 L235.3,360.5 L240.9,360.5 L246.6,360.5 L252.3,360.5 L257.9,360.5 L263.6,360.5
		L269.3,360.5 L274.9,360.5 L280.6,360.5 L286.3,360.5 L291.9,360.5 L297.6,360.5 L303.3,360.5 L308.9,360.5
		L314.6,360.5 L320.3,360.5 L325.9,360.5 L331.6,360.5 L337.3,360.5 L343.0,360.5 L348.6,360.5 L354.3,360.5
		L360.0,360.5 L365.6,360.5 L371.3,360.5 L377.0,360.5 L382.6,360.5 L388.3,360.5 L394.0,360.5 L399.6,360.5
		L405.3,360.5 L411.0,360.5 L416.6,360.5 L422.3,360.5 L428.0,360.5 L433.6,360.5 L439.3,360.5 L445.0,360.5
		L450.6,360.5 L456.3,360.5 L462.0,360.5 L467.6,360.5 L473.3,360.5 L479.0,360.5 L484.6,360.5 L490.3,360.5
		L496.0,360.5 L501.6,360.5 L507.3,360.5 L513.0,360.5 L518.6,360.5 L524.3,360.5 L530.0,360.5 L535.7,360.5
		L541.3,360.5 L547.0,360.5 L552.7,360.5 L558.3,360.5 L564.0,360.5 L569.7,360.5 L575.3,360.5 L581.0,360.5
		L586.7,360.5 L592.3,360.5 L598.0,360.5 L603.7,360.5 L609.3,360.5 L615.0,360.5  '/></g>
	</g>
<g fill="none" color="#FFFFFF" stroke="rgb( 86, 180, 233)" stroke-width="2.00" stroke-linecap="butt" stroke-linejoin="miter">
</g>
<g fill="none" color="black" stroke="currentColor" stroke-width="2.00" stroke-linecap="butt" stroke-linejoin="miter">
</g>
<g fill="none" color="black" stroke="black" stroke-width="1.00" stroke-linecap="butt" stroke-linejoin="miter">
</g>
<g fill="none" color="black" stroke="currentColor" stroke-width="1.00" stroke-linecap="butt" stroke-linejoin="miter">
	<path stroke='black'  d='M53.9,18.1 L53.9,436.0 L615.0,436.0 L615.0,18.1 L53.9,18.1 Z  '/></g>
<g fill="none" color="black" stroke="currentColor" stroke-width="1.00" stroke-linecap="butt" stroke-linejoin="miter">
</g>
</g>
</svg>
